icons/svg/heart-pulse.svg

﻿<?xml version="1.0" encoding="utf-8"?>
<!DOCTYPE svg PUBLIC "-//W3C//DTD SVG 1.1//EN" "http://www.w3.org/Graphics/SVG/1.1/DTD/svg11.dtd">
<svg xmlns="http://www.w3.org/2000/svg" xmlns:xlink="http://www.w3.org/1999/xlink" version="1.1" baseProfile="full" width="24" height="24" viewBox="0 0 24.00 24.00" enable-background="new 0 0 24.00 24.00" xml:space="preserve">
	<path fill="#000000" fill-opacity="1" stroke-width="1.33333" stroke-linejoin="miter" d="M 7.5,4C 4.46243,4 2,6.4624 2,9.5C 2,10.0206 2.08819,10.5188 2.21875,11L 6.3,11L 7.57031,7.6328C 7.8748,6.8257 9.05446,6.7505 9.43359,7.6328L 11.5,13L 12.0884,11.5763C 12.2214,11.2545 12.5727,10.9961 13,10.9961L 21.7813,10.9961C 21.9118,10.5149 22,10.0167 22,9.4961C 22,6.4585 19.5376,3.9961 16.5,3.9961C 14.6413,3.9961 12.9956,4.9282 12,6.3398C 11.0044,4.9281 9.35871,3.9961 7.5,3.9961L 7.5,4 Z M 3,12.5C 2.446,12.5 2,12.946 2,13.5C 2,14.054 2.446,14.5 3,14.5L 5.4375,14.5L 11,20C 12,20.8983 12,20.8983 13,20L 18.5625,14.5L 21,14.5C 21.554,14.5 22,14.054 22,13.5C 22,12.946 21.554,12.5 21,12.5L 13.4,12.5L 12.4744,14.7992C 12.0675,15.8101 10.9219,15.6689 10.5536,14.8262L 8.5,9.5L 7.5417,11.8279C 7.38634,12.2053 7.0503,12.4998 6.6003,12.4998L 3,12.5 Z "/>
</svg>

<svg xmlns="http://www.w3.org/2000/svg" version="1.1" baseProfile="full" width="24" height="24" viewBox="0 0 24.00 24.00" xml:space="preserve"><path fill="#000" fill-opacity="1" stroke-width="1.333" stroke-linejoin="miter" d="M7.5 4C4.462 4 2 6.462 2 9.5c0 .52.088 1.02.22 1.5H6.3l1.27-3.367c.305-.807 1.484-.883 1.864 0L11.5 13l.588-1.424c.133-.322.485-.58.912-.58h8.78c.132-.48.22-.98.22-1.5 0-3.038-2.462-5.5-5.5-5.5-1.86 0-3.504.932-4.5 2.344-.996-1.412-2.64-2.344-4.5-2.344V4zM3 12.5c-.554 0-1 .446-1 1s.446 1 1 1h2.438L11 20c1 .898 1 .898 2 0l5.563-5.5H21c.554 0 1-.446 1-1s-.446-1-1-1h-7.6l-.926 2.3c-.406 1.01-1.552.87-1.92.026L8.5 9.5l-.958 2.328c-.156.377-.492.672-.942.672H3z"/></svg>
